X:1
T:nyth y gwcw (miss pritchard)
O:traditional welsh
O:cwrtnewydd ms
M:2/4
L:1/4
Q:1/2=100
K:Em
Bd|e3e|efge|dBBA|B2dB|ABde|faef|d2B2|B2Bd|
e2ef|g2fe|dBGB|d2BA|GFGE|D2BA|1GAFG|E2:||2GAFG|E4|
B3G|EGG2|BAGF|E2FG|AFF2|DFF2|AGFE|D2EF|
G2GF|G2GE|DBGB|d2BA|GFGE|D2BA|GAFG|E4:||
